flaticon/emoticons/goofy.svg

<svg xmlns="http://www.w3.org/2000/svg" width="32" height="32" viewBox="0 0 24 24">
    <path d="M 23.917969 10.425781 C 23.757812 9.75 23.371094 9.164062 22.886719 8.867188 C 22.5625 8.667969 22.214844 8.601562 21.882812 8.683594 C 21.808594 8.699219 21.734375 8.726562 21.664062 8.761719 C 20.730469 6.488281 19.273438 5.015625 17.773438 4.066406 L 18.316406 2.980469 C 18.417969 2.78125 18.335938 2.542969 18.140625 2.441406 C 17.941406 2.34375 17.699219 2.421875 17.601562 2.621094 L 17.082031 3.664062 C 16.835938 3.53125 16.589844 3.414062 16.347656 3.304688 L 16.738281 2.125 C 16.808594 1.917969 16.695312 1.691406 16.488281 1.621094 C 16.277344 1.550781 16.050781 1.664062 15.980469 1.875 L 15.601562 3.011719 C 15.324219 2.910156 15.054688 2.828125 14.796875 2.753906 L 15.140625 1.726562 C 15.210938 1.515625 15.097656 1.289062 14.886719 1.222656 C 14.675781 1.148438 14.449219 1.265625 14.382812 1.472656 L 14.019531 2.5625 C 13.511719 2.457031 13.078125 2.398438 12.757812 2.367188 L 12.757812 1.601562 C 12.757812 1.378906 12.582031 1.199219 12.359375 1.199219 C 12.136719 1.199219 11.960938 1.378906 11.960938 1.601562 L 11.960938 2.335938 C 11.75 2.347656 11.382812 2.375 10.90625 2.449219 L 10.753906 1.535156 C 10.71875 1.316406 10.511719 1.167969 10.292969 1.207031 C 10.078125 1.242188 9.929688 1.449219 9.964844 1.664062 L 10.121094 2.601562 C 9.691406 2.695312 9.21875 2.828125 8.71875 3.007812 L 8.339844 1.875 C 8.269531 1.664062 8.042969 1.550781 7.832031 1.621094 C 7.625 1.691406 7.511719 1.917969 7.582031 2.125 L 7.972656 3.304688 C 7.628906 3.457031 7.277344 3.632812 6.925781 3.832031 L 6.316406 2.621094 C 6.21875 2.421875 5.980469 2.34375 5.78125 2.441406 C 5.582031 2.542969 5.503906 2.78125 5.601562 2.980469 L 6.242188 4.261719 C 5.890625 4.5 5.542969 4.773438 5.203125 5.078125 L 4.242188 4.117188 C 4.085938 3.960938 3.832031 3.960938 3.675781 4.117188 C 3.519531 4.273438 3.519531 4.527344 3.675781 4.683594 L 4.632812 5.636719 C 3.402344 6.945312 2.375 8.773438 1.902344 11.324219 C 1.894531 11.355469 1.890625 11.390625 1.886719 11.421875 C 1.785156 11.394531 1.679688 11.375 1.574219 11.375 C 0.691406 11.375 0 12.328125 0 13.546875 C 0 14.761719 0.691406 15.714844 1.574219 15.714844 C 1.738281 15.714844 1.894531 15.671875 2.046875 15.609375 C 2.328125 16.675781 2.792969 17.679688 3.429688 18.558594 C 4.726562 20.347656 7.285156 22.460938 12.152344 22.398438 C 12.226562 22.402344 12.300781 22.402344 12.375 22.402344 C 13.574219 22.402344 14.6875 22.261719 15.707031 22 L 15.921875 22.214844 C 16.3125 22.605469 16.824219 22.800781 17.335938 22.800781 C 17.847656 22.800781 18.359375 22.605469 18.75 22.214844 L 19.035156 21.933594 C 19.554688 21.414062 19.71875 20.679688 19.546875 20.015625 C 20.046875 19.578125 20.496094 19.09375 20.882812 18.558594 C 22.035156 16.972656 22.621094 14.980469 22.574219 12.929688 C 22.589844 12.929688 22.601562 12.933594 22.617188 12.933594 C 22.707031 12.933594 22.796875 12.925781 22.886719 12.902344 C 23.742188 12.699219 24.199219 11.609375 23.917969 10.425781 Z M 1.871094 14.796875 C 1.789062 14.863281 1.6875 14.914062 1.574219 14.914062 C 1.207031 14.914062 0.800781 14.351562 0.800781 13.546875 C 0.800781 12.738281 1.207031 12.175781 1.574219 12.175781 C 1.640625 12.175781 1.710938 12.195312 1.777344 12.230469 C 1.757812 12.445312 1.746094 12.65625 1.738281 12.871094 C 1.738281 12.882812 1.738281 12.898438 1.738281 12.910156 C 1.734375 13.089844 1.734375 13.265625 1.738281 13.441406 C 1.742188 13.496094 1.742188 13.550781 1.746094 13.605469 C 1.753906 13.75 1.761719 13.894531 1.777344 14.035156 C 1.78125 14.09375 1.785156 14.148438 1.789062 14.203125 C 1.808594 14.378906 1.832031 14.554688 1.859375 14.726562 C 1.863281 14.75 1.867188 14.773438 1.871094 14.796875 Z M 18.46875 21.367188 L 18.183594 21.648438 C 17.71875 22.117188 16.957031 22.117188 16.488281 21.648438 L 14.683594 19.84375 C 15.011719 19.664062 15.308594 19.441406 15.589844 19.195312 C 15.597656 19.195312 15.605469 19.199219 15.613281 19.199219 C 15.816406 19.320312 16.285156 19.746094 17.007812 20.472656 L 17.054688 20.519531 C 17.132812 20.597656 17.234375 20.636719 17.335938 20.636719 C 17.441406 20.636719 17.542969 20.597656 17.621094 20.519531 C 17.777344 20.363281 17.777344 20.109375 17.621094 19.953125 L 17.574219 19.90625 C 17.320312 19.652344 16.933594 19.265625 16.582031 18.953125 C 16.457031 18.839844 16.316406 18.71875 16.179688 18.617188 C 16.363281 18.410156 16.546875 18.179688 16.710938 17.914062 L 18.46875 19.671875 C 18.523438 19.726562 18.570312 19.785156 18.609375 19.84375 C 18.652344 19.90625 18.6875 19.972656 18.71875 20.042969 L 18.738281 20.089844 C 18.902344 20.519531 18.8125 21.023438 18.46875 21.367188 Z M 20.234375 18.089844 C 19.925781 18.515625 19.574219 18.914062 19.183594 19.273438 C 19.136719 19.214844 19.085938 19.15625 19.035156 19.105469 L 16.976562 17.046875 C 17.121094 16.589844 17.199219 16.105469 17.199219 15.601562 C 17.199219 15.378906 17.019531 15.199219 16.800781 15.199219 C 16.578125 15.199219 16.398438 15.378906 16.398438 15.601562 C 16.398438 17.804688 14.605469 19.597656 12.398438 19.597656 C 10.195312 19.597656 8.398438 17.804688 8.398438 15.601562 C 8.398438 15.378906 8.21875 15.199219 8 15.199219 C 7.777344 15.199219 7.601562 15.378906 7.601562 15.601562 C 7.601562 18.246094 9.753906 20.398438 12.398438 20.398438 C 12.914062 20.398438 13.40625 20.316406 13.871094 20.164062 L 15.046875 21.339844 C 14.15625 21.527344 13.1875 21.613281 12.152344 21.601562 C 8.523438 21.667969 5.804688 20.46875 4.078125 18.089844 C 3.253906 16.953125 2.746094 15.585938 2.585938 14.144531 C 2.582031 14.113281 2.582031 14.082031 2.582031 14.050781 C 2.558594 13.820312 2.542969 13.589844 2.539062 13.359375 C 2.539062 13.257812 2.539062 13.160156 2.539062 13.058594 C 2.542969 12.894531 2.546875 12.730469 2.558594 12.570312 C 2.566406 12.453125 2.574219 12.332031 2.585938 12.214844 C 2.613281 11.964844 2.640625 11.71875 2.6875 11.46875 C 3.125 9.097656 4.0625 7.402344 5.183594 6.1875 L 5.675781 6.683594 C 5.753906 6.761719 5.855469 6.800781 5.957031 6.800781 C 6.0625 6.800781 6.164062 6.761719 6.242188 6.683594 C 6.398438 6.527344 6.398438 6.273438 6.242188 6.117188 L 5.75 5.625 C 6.023438 5.378906 6.304688 5.152344 6.585938 4.953125 L 6.800781 5.378906 C 6.871094 5.519531 7.011719 5.601562 7.160156 5.601562 C 7.21875 5.601562 7.28125 5.585938 7.339844 5.558594 C 7.535156 5.460938 7.617188 5.21875 7.515625 5.019531 L 7.265625 4.519531 C 7.582031 4.332031 7.902344 4.167969 8.214844 4.03125 L 8.378906 4.527344 C 8.4375 4.695312 8.589844 4.800781 8.757812 4.800781 C 8.800781 4.800781 8.84375 4.792969 8.886719 4.78125 C 9.09375 4.710938 9.207031 4.484375 9.136719 4.273438 L 8.957031 3.734375 C 9.417969 3.570312 9.851562 3.453125 10.246094 3.367188 L 10.363281 4.066406 C 10.398438 4.261719 10.566406 4.398438 10.757812 4.398438 C 10.78125 4.398438 10.800781 4.398438 10.824219 4.394531 C 11.042969 4.359375 11.191406 4.152344 11.152344 3.933594 L 11.035156 3.222656 C 11.445312 3.164062 11.765625 3.144531 11.960938 3.136719 L 11.960938 4 C 11.960938 4.222656 12.140625 4.398438 12.359375 4.398438 C 12.582031 4.398438 12.757812 4.222656 12.757812 4 L 12.757812 3.160156 C 13.027344 3.183594 13.371094 3.230469 13.769531 3.304688 L 13.582031 3.875 C 13.511719 4.082031 13.625 4.308594 13.832031 4.378906 C 13.875 4.394531 13.917969 4.402344 13.960938 4.402344 C 14.125 4.402344 14.28125 4.292969 14.339844 4.128906 L 14.554688 3.484375 C 14.808594 3.554688 15.082031 3.636719 15.359375 3.738281 L 15.179688 4.273438 C 15.109375 4.484375 15.222656 4.710938 15.433594 4.78125 C 15.476562 4.792969 15.519531 4.800781 15.558594 4.800781 C 15.726562 4.800781 15.882812 4.695312 15.9375 4.527344 L 16.101562 4.035156 C 16.3125 4.128906 16.527344 4.234375 16.738281 4.347656 L 16.402344 5.023438 C 16.300781 5.21875 16.382812 5.460938 16.578125 5.558594 C 16.636719 5.585938 16.699219 5.601562 16.757812 5.601562 C 16.90625 5.601562 17.046875 5.519531 17.117188 5.378906 L 17.429688 4.757812 C 18.835938 5.671875 20.199219 7.101562 21.039062 9.339844 L 21.035156 9.34375 L 21.109375 9.546875 C 21.214844 9.839844 21.300781 10.132812 21.382812 10.429688 C 21.394531 10.464844 21.40625 10.503906 21.414062 10.542969 C 21.496094 10.847656 21.566406 11.152344 21.625 11.46875 C 21.671875 11.734375 21.707031 12.003906 21.734375 12.269531 C 21.738281 12.316406 21.742188 12.359375 21.746094 12.40625 C 21.917969 14.472656 21.386719 16.503906 20.234375 18.089844 Z M 22.699219 12.125 C 22.644531 12.136719 22.585938 12.136719 22.523438 12.125 C 22.523438 12.109375 22.519531 12.09375 22.519531 12.078125 C 22.492188 11.828125 22.457031 11.574219 22.410156 11.324219 C 22.355469 11.015625 22.285156 10.71875 22.214844 10.429688 C 22.207031 10.398438 22.195312 10.363281 22.1875 10.332031 C 22.113281 10.058594 22.035156 9.792969 21.953125 9.539062 C 21.949219 9.53125 21.949219 9.523438 21.945312 9.515625 C 21.984375 9.488281 22.027344 9.46875 22.070312 9.460938 C 22.222656 9.425781 22.371094 9.488281 22.46875 9.546875 C 22.769531 9.734375 23.027344 10.140625 23.140625 10.613281 C 23.324219 11.398438 23.054688 12.039062 22.699219 12.125 Z M 22.699219 12.125"/>
    <path d="M 14.597656 6.800781 C 13.832031 6.800781 13.09375 7.003906 12.464844 7.386719 C 12.054688 7.636719 11.546875 7.636719 11.136719 7.386719 C 10.503906 7.003906 9.765625 6.800781 9 6.800781 C 6.90625 6.800781 5.199219 8.324219 5.199219 10.199219 C 5.199219 12.074219 6.90625 13.601562 9 13.601562 C 9.765625 13.601562 10.503906 13.394531 11.136719 13.011719 C 11.546875 12.761719 12.054688 12.761719 12.464844 13.011719 C 13.09375 13.394531 13.832031 13.601562 14.597656 13.601562 C 16.695312 13.601562 18.398438 12.074219 18.398438 10.199219 C 18.398438 8.324219 16.695312 6.800781 14.597656 6.800781 Z M 14.597656 12.800781 C 13.980469 12.800781 13.386719 12.636719 12.878906 12.328125 C 12.546875 12.125 12.171875 12.023438 11.800781 12.023438 C 11.425781 12.023438 11.050781 12.125 10.71875 12.328125 C 10.214844 12.636719 9.617188 12.800781 9 12.800781 C 7.34375 12.800781 6 11.632812 6 10.199219 C 6 8.765625 7.34375 7.601562 9 7.601562 C 9.617188 7.601562 10.214844 7.761719 10.71875 8.070312 C 11.386719 8.476562 12.214844 8.476562 12.878906 8.070312 C 13.382812 7.761719 13.980469 7.601562 14.597656 7.601562 C 16.253906 7.601562 17.597656 8.765625 17.597656 10.199219 C 17.597656 11.632812 16.253906 12.800781 14.597656 12.800781 Z M 14.597656 12.800781"/>
    <path d="M10.398438 10.800781C10.398438 11.242188 10.042969 11.601562 9.597656 11.601562 9.15625 11.601562 8.800781 11.242188 8.800781 10.800781 8.800781 10.359375 9.15625 10 9.597656 10 10.042969 10 10.398438 10.359375 10.398438 10.800781zM15.597656 10.398438C15.597656 11.0625 15.0625 11.601562 14.398438 11.601562 13.738281 11.601562 13.199219 11.0625 13.199219 10.398438 13.199219 9.738281 13.738281 9.199219 14.398438 9.199219 15.0625 9.199219 15.597656 9.738281 15.597656 10.398438zM15.597656 10.398438"/>
</svg>

<svg xmlns="http://www.w3.org/2000/svg" width="32" height="32" viewBox="0 0 24 24">
    <path d="M23.918 10.426c-.16-.676-.547-1.262-1.031-1.559-.325-.199-.672-.265-1.004-.183a.916.916 0 0 0-.219.078c-.934-2.274-2.39-3.746-3.89-4.696l.542-1.086a.401.401 0 0 0-.175-.539.402.402 0 0 0-.54.18l-.519 1.043c-.246-.133-.492-.25-.734-.36l.39-1.179a.4.4 0 1 0-.758-.25l-.378 1.137a11.849 11.849 0 0 0-.805-.258l.344-1.027a.395.395 0 0 0-.254-.504.393.393 0 0 0-.504.25l-.363 1.09a12.012 12.012 0 0 0-1.262-.196v-.765a.398.398 0 1 0-.797 0v.734c-.211.012-.578.039-1.055.113l-.152-.914a.4.4 0 0 0-.79.129l.157.938c-.43.093-.902.226-1.402.406l-.38-1.133a.4.4 0 0 0-.758.25l.392 1.18c-.344.152-.696.328-1.047.527l-.61-1.21a.397.397 0 0 0-.535-.18.403.403 0 0 0-.18.538l.641 1.282c-.351.238-.699.511-1.039.816l-.96-.96a.4.4 0 0 0-.567.566l.957.953c-1.23 1.308-2.258 3.136-2.73 5.687-.008.031-.012.067-.016.098a1.21 1.21 0 0 0-.313-.047c-.883 0-1.574.953-1.574 2.172 0 1.215.691 2.168 1.574 2.168.164 0 .32-.043.473-.106a8.885 8.885 0 0 0 1.383 2.95c1.297 1.789 3.855 3.902 8.722 3.84A13.383 13.383 0 0 0 15.707 22l.215.214c.39.39.902.586 1.414.586.512 0 1.023-.196 1.414-.586l.285-.281c.52-.52.684-1.254.512-1.918.5-.438.95-.922 1.336-1.457 1.152-1.586 1.738-3.579 1.691-5.63.016 0 .028.005.043.005.09 0 .18-.008.27-.032.855-.203 1.312-1.293 1.031-2.476zm-22.047 4.37a.477.477 0 0 1-.297.118c-.367 0-.773-.562-.773-1.367 0-.809.406-1.371.773-1.371a.44.44 0 0 1 .203.054c-.02.215-.03.426-.039.641v.04c-.004.179-.004.355 0 .53.004.055.004.11.008.164.008.145.016.29.031.43l.012.168c.02.176.043.352.07.524l.012.07zm16.598 6.571l-.285.281a1.198 1.198 0 0 1-1.696 0l-1.804-1.804c.328-.18.625-.403.906-.649.008 0 .015.004.023.004.203.121.672.547 1.395 1.274l.047.047a.399.399 0 0 0 .566 0 .4.4 0 0 0 0-.567l-.047-.047c-.254-.254-.64-.64-.992-.953a5.551 5.551 0 0 0-.402-.336 5.09 5.09 0 0 0 .53-.703l1.759 1.758a1.23 1.23 0 0 1 .25.371l.02.047a1.2 1.2 0 0 1-.27 1.277zm1.765-3.277a7.94 7.94 0 0 1-1.05 1.183 2.069 2.069 0 0 0-.149-.168l-2.058-2.058a4.78 4.78 0 0 0 .222-1.445.401.401 0 1 0-.8 0 4.002 4.002 0 0 1-4 3.996c-2.204 0-4-1.793-4-3.996a.398.398 0 0 0-.797 0 4.803 4.803 0 0 0 4.796 4.796c.516 0 1.008-.082 1.473-.234l1.176 1.176c-.89.187-1.86.273-2.895.262-3.629.066-6.347-1.133-8.074-3.512-.824-1.137-1.332-2.504-1.492-3.945-.004-.032-.004-.063-.004-.094a8.21 8.21 0 0 1-.043-.692v-.3c.004-.164.008-.329.02-.489a9.769 9.769 0 0 1 .129-1.102c.437-2.37 1.375-4.066 2.496-5.28l.492.496a.399.399 0 0 0 .566 0 .4.4 0 0 0 0-.567l-.492-.492a9.26 9.26 0 0 1 .836-.672l.215.426a.4.4 0 1 0 .715-.36l-.25-.5c.316-.187.636-.351.949-.488l.164.496a.401.401 0 0 0 .508.254.402.402 0 0 0 .25-.508l-.18-.539c.461-.164.895-.28 1.29-.367l.116.7a.401.401 0 0 0 .395.331c.023 0 .043 0 .066-.003a.396.396 0 0 0 .328-.461l-.117-.711c.41-.059.73-.078.926-.086V4c0 .223.18.398.398.398A.395.395 0 0 0 12.758 4v-.84c.27.024.613.07 1.012.145l-.188.57a.4.4 0 0 0 .25.504.375.375 0 0 0 .129.023.41.41 0 0 0 .379-.273l.215-.645c.254.07.527.153.804.254l-.18.535a.4.4 0 0 0 .38.528.397.397 0 0 0 .379-.274l.164-.492c.21.094.425.2.636.313l-.336.675a.397.397 0 0 0 .356.579.4.4 0 0 0 .36-.223l.312-.621c1.406.914 2.77 2.344 3.61 4.582l-.005.004.074.203a12.097 12.097 0 0 1 .305.996c.082.305.152.61.211.926.047.265.082.535.11.8l.011.137c.172 2.067-.36 4.098-1.512 5.684zm2.465-5.965a.443.443 0 0 1-.176 0c0-.016-.003-.031-.003-.047-.028-.25-.063-.504-.11-.754a14.382 14.382 0 0 0-.195-.894c-.008-.032-.02-.067-.027-.098-.075-.273-.153-.539-.235-.793-.004-.008-.004-.016-.008-.023a.322.322 0 0 1 .125-.055c.153-.035.301.027.399.086.3.187.558.594.672 1.066.183.785-.086 1.426-.442 1.512zm0 0"/>
    <path d="M14.598 6.8c-.766 0-1.504.204-2.133.587-.41.25-.918.25-1.328 0A4.123 4.123 0 0 0 9 6.8c-2.094 0-3.8 1.523-3.8 3.398 0 1.875 1.706 3.403 3.8 3.403.766 0 1.504-.207 2.137-.59.41-.25.918-.25 1.328 0 .629.383 1.367.59 2.133.59 2.097 0 3.8-1.528 3.8-3.403s-1.703-3.398-3.8-3.398zm0 6c-.618 0-1.211-.163-1.72-.472a2.069 2.069 0 0 0-2.16 0A3.294 3.294 0 0 1 9 12.801c-1.656 0-3-1.168-3-2.602 0-1.433 1.344-2.597 3-2.597.617 0 1.215.16 1.719.468a2.067 2.067 0 0 0 2.16 0 3.291 3.291 0 0 1 1.719-.468c1.656 0 3 1.164 3 2.597 0 1.434-1.344 2.602-3 2.602zm0 0"/>
    <path d="M10.398 10.8a.8.8 0 1 1-1.597 0 .799.799 0 1 1 1.597 0zm0 0M15.598 10.398a1.2 1.2 0 0 1-1.2 1.204 1.202 1.202 0 0 1 0-2.402c.665 0 1.2.538 1.2 1.198zm0 0"/>
</svg>
